;FLAVOR:UltiGCode
;TIME:11607
;MATERIAL:40711
;MATERIAL2:0
;NOZZLE_DIAMETER:0.4
;MINX:9.545
;MINY:35.314
;MINZ:0.3
;MAXX:213.454
;MAXY:189.838
;MAXZ:19.8
;Generated with Cura_SteamEngine 4.4.0-BETA
M82 ;absolute extrusion mode

G92 E0
G92 E0
G10
;LAYER_COUNT:66
;LAYER:0
M107
G0 F3600 X44.741 Y50.642 Z0.3
;TYPE:SKIRT
G11
G1 F1800 X45.372 Y50.168 E0.0947
G1 X46.048 Y49.76 E0.18945
G1 X46.762 Y49.422 E0.28425
G1 X47.506 Y49.158 E0.37898
G1 X48.274 Y48.971 E0.47384
G1 X49.056 Y48.863 E0.56857
G1 X49.736 Y48.833 E0.65025
G1 X55.035 Y48.833 E1.28613
G1 X55.824 Y48.873 E1.38093
G1 X56.604 Y48.992 E1.47561
G1 X57.369 Y49.19 E1.57044
G1 X58.109 Y49.464 E1.66513
G1 X58.818 Y49.812 E1.7599
G1 X59.489 Y50.23 E1.85477
G1 X60.113 Y50.713 E1.94946
G1 X60.513 Y51.08 E2.0146
G1 X68.932 Y59.386 E3.4338
G1 X69.83 Y60.268 E3.58484
G1 X80.034 Y67 E5.0518
G1 X91.348 Y71.637 E6.51908
G1 X103.356 Y74.002 E7.98772
G1 X115.592 Y74.001 E9.45604
G1 X127.631 Y71.626 E10.92857
G1 X128.812 Y71.143 E11.08168
G1 X138.97 Y66.969 E12.39954
G1 X140.046 Y66.261 E12.5541
G1 X140.046 Y66.262 E12.55422
G1 X149.178 Y60.218 E13.86833
G1 X150.093 Y59.319 E14.02226
G1 X158.421 Y51.093 E15.42694
G1 X158.568 Y50.937 E15.45267
G1 X159.165 Y50.42 E15.54743
G1 X159.811 Y49.966 E15.64218
G1 X160.5 Y49.58 E15.73695
G1 X161.224 Y49.266 E15.83165
G1 X161.976 Y49.026 E15.92638
G1 X162.749 Y48.863 E16.02118
G1 X163.534 Y48.78 E16.1159
G1 X163.959 Y48.768 E16.16692
G1 X169.259 Y48.764 E16.80292
G1 X170.048 Y48.803 E16.89772
G1 X170.828 Y48.922 E16.9924
G1 X171.593 Y49.12 E17.08723
G1 X172.334 Y49.393 E17.18199
G1 X173.043 Y49.74 E17.27671
G1 X173.714 Y50.157 E17.37152
G1 X174.339 Y50.64 E17.4663
G1 X174.912 Y51.183 E17.56103
G1 X175.427 Y51.782 E17.65583
G1 X175.879 Y52.429 E17.75054
G1 X176.263 Y53.119 E17.84529
G1 X176.576 Y53.845 E17.94017
G1 X176.813 Y54.598 E18.0349
G1 X176.973 Y55.371 E18.12962
G1 X177.054 Y56.156 E18.22432
G1 X177.056 Y56.946 E18.31912
G1 X176.977 Y57.732 E18.41392
G1 X176.819 Y58.506 E18.50871
G1 X176.584 Y59.26 E18.60349
G1 X176.274 Y59.986 E18.69822
G1 X175.892 Y60.677 E18.79296
G1 X175.229 Y61.591 E18.92846
G1 X170.225 Y67.527 E19.86011
G1 X169.68 Y68.111 E19.95597
G1 X164.152 Y73.45 E20.8782
G1 X163.551 Y73.973 E20.97381
G1 X157.551 Y78.686 E21.88937
G1 X156.9 Y79.146 E21.98503
G1 X150.38 Y83.266 E22.91054
G1 X149.682 Y83.658 E23.00661
G1 X142.918 Y87.017 E23.91286
G1 X142.198 Y87.33 E24.00707
G1 X135.032 Y90.029 E24.92597
G1 X134.274 Y90.272 E25.02148
G1 X126.88 Y92.224 E25.93916
G1 X126.099 Y92.388 E26.03493
G1 X118.54 Y93.575 E26.95312
G1 X117.751 Y93.658 E27.04833
G1 X110.107 Y94.071 E27.96694
G1 X109.311 Y94.073 E28.06246
G1 X101.894 Y93.716 E28.95353
G1 X101.713 Y93.705 E28.97529
G1 X101.307 Y93.676 E29.02414
G1 X100.684 Y93.606 E29.09937
G1 X93.182 Y92.459 E30.01007
G1 X92.4 Y92.299 E30.10585
G1 X84.969 Y90.369 E31.02716
G1 X84.205 Y90.128 E31.12329
G1 X76.998 Y87.441 E32.04629
G1 X76.269 Y87.126 E32.14158
G1 X69.393 Y83.73 E33.06185
G1 X68.696 Y83.34 E33.15769
G1 X62.276 Y79.305 E34.06762
G1 X61.629 Y78.851 E34.16247
G1 X55.772 Y74.281 E35.05394
G1 X55.682 Y74.21 E35.0677
G1 X55.391 Y73.976 E35.11251
G1 X54.874 Y73.521 E35.19515
G1 X49.418 Y68.277 E36.10326
G1 X48.874 Y67.698 E36.19859
G1 X43.922 Y61.858 E37.11742
G1 X43.631 Y61.493 E37.17344
G1 X43.496 Y61.313 E37.20044
G1 X43.055 Y60.658 E37.29519
G1 X42.682 Y59.962 E37.38995
G1 X42.382 Y59.232 E37.48466
G1 X42.157 Y58.475 E37.57942
G1 X42.009 Y57.699 E37.67422
G1 X41.941 Y56.912 E37.76901
G1 X41.953 Y56.123 E37.86371
G1 X42.044 Y55.338 E37.95854
G1 X42.215 Y54.567 E38.0533
G1 X42.462 Y53.817 E38.14806
G1 X42.784 Y53.096 E38.24282
G1 X43.177 Y52.411 E38.33758
G1 X43.638 Y51.77 E38.43233
G1 X44.161 Y51.178 E38.52712
G1 X44.741 Y50.642 E38.62189
G0 F3600 X45.231 Y50.762
G1 F1800 X45.865 Y50.326 E38.71423
G1 X46.54 Y49.959 E38.80642
G1 X47.251 Y49.663 E38.89884
G1 X47.987 Y49.443 E38.99102
G1 X48.743 Y49.3 E39.08335
G1 X49.736 Y49.233 E39.20278
G1 X55.035 Y49.233 E39.83866
G1 X55.803 Y49.273 E39.93095
G1 X56.563 Y49.392 E40.02326
G1 X57.306 Y49.59 E40.11553
G1 X58.025 Y49.864 E40.20786
G1 X58.711 Y50.211 E40.30012
G1 X59.358 Y50.627 E40.39242
G1 X60.232 Y51.365 E40.52969
G1 X68.651 Y59.671 E41.94888
G1 X69.576 Y60.579 E42.10443
G1 X79.847 Y67.355 E43.581
G1 X91.23 Y72.021 E45.05726
G1 X103.32 Y74.402 E46.53593
G1 X115.633 Y74.401 E48.01349
G1 X127.742 Y72.013 E49.49456
G1 X128.963 Y71.513 E49.65289
G1 X128.963 Y71.514 E49.65301
G1 X139.161 Y67.322 E50.97612
G1 X140.247 Y66.608 E51.13209
G1 X149.43 Y60.53 E52.45356
G1 X150.373 Y59.604 E52.61215
G1 X158.702 Y51.377 E54.017
G1 X158.859 Y51.212 E54.04433
G1 X159.442 Y50.711 E54.13658
G1 X160.075 Y50.273 E54.22895
G1 X160.749 Y49.903 E54.32121
G1 X161.458 Y49.606 E54.41346
G1 X162.195 Y49.383 E54.50586
G1 X162.95 Y49.238 E54.59811
G1 X163.959 Y49.168 E54.71948
G1 X169.259 Y49.164 E55.35548
G1 X170.028 Y49.203 E55.44788
G1 X170.787 Y49.322 E55.54008
G1 X171.531 Y49.519 E55.63243
G1 X172.25 Y49.793 E55.72476
G1 X172.937 Y50.139 E55.81707
G1 X173.584 Y50.555 E55.90937
G1 X174.184 Y51.036 E56.00165
G1 X174.731 Y51.576 E56.09389
G1 X175.22 Y52.17 E56.18622
G1 X175.643 Y52.812 E56.27848
G1 X175.998 Y53.495 E56.37085
G1 X176.281 Y54.21 E56.46312
G1 X176.487 Y54.951 E56.55541
G1 X176.615 Y55.709 E56.64766
G1 X176.664 Y56.477 E56.74001
G1 X176.634 Y57.246 E56.83236
G1 X176.523 Y58.007 E56.92465
G1 X176.334 Y58.752 E57.01688
G1 X176.069 Y59.474 E57.10917
G1 X175.73 Y60.165 E57.20153
G1 X175.321 Y60.816 E57.29379
G1 X174.923 Y61.334 E57.37218
G1 X169.919 Y67.27 E58.30383
G1 X169.402 Y67.823 E58.39467
G1 X163.874 Y73.162 E59.31691
G1 X163.304 Y73.658 E59.40758
G1 X157.304 Y78.371 E60.32314
G1 X156.686 Y78.808 E60.41397
G1 X150.166 Y82.928 E61.33949
G1 X149.504 Y83.3 E61.43061
G1 X142.74 Y86.659 E62.33687
G1 X142.057 Y86.956 E62.42624
G1 X134.891 Y89.655 E63.34513
G1 X134.172 Y89.885 E63.43572
G1 X126.778 Y91.837 E64.3534
G1 X126.037 Y91.992 E64.44424
G1 X118.478 Y93.179 E65.36244
G1 X117.729 Y93.258 E65.45282
G1 X110.085 Y93.671 E66.37143
G1 X109.33 Y93.673 E66.46203
G1 X101.913 Y93.316 E67.3531
G1 X101.742 Y93.306 E67.37366
G1 X101.336 Y93.277 E67.4225
G1 X100.745 Y93.211 E67.49386
G1 X93.243 Y92.064 E68.40457
G1 X92.501 Y91.911 E68.49548
G1 X85.07 Y89.981 E69.41678
G1 X84.345 Y89.753 E69.50799
G1 X77.138 Y87.066 E70.43098
G1 X76.446 Y86.767 E70.52144
G1 X69.57 Y83.371 E71.44171
G1 X68.909 Y83.001 E71.53261
G1 X62.489 Y78.966 E72.44253
G1 X61.875 Y78.535 E72.53256
G1 X56.018 Y73.965 E73.42403
G1 X55.933 Y73.898 E73.43702
G1 X55.642 Y73.664 E73.48183
G1 X55.151 Y73.232 E73.56031
G1 X49.695 Y67.988 E74.46841
G1 X49.179 Y67.439 E74.55882
G1 X44.227 Y61.599 E75.47765
G1 X43.951 Y61.253 E75.53076
G1 X43.816 Y61.073 E75.55776
G1 X43.387 Y60.435 E75.65002
G1 X43.027 Y59.755 E75.74235
G1 X42.739 Y59.042 E75.83462
G1 X42.527 Y58.302 E75.927
G1 X42.392 Y57.545 E76.01927
G1 X42.337 Y56.778 E76.11155
G1 X42.362 Y56.009 E76.20387
G1 X42.467 Y55.247 E76.29618
G1 X42.65 Y54.5 E76.38847
G1 X42.91 Y53.776 E76.48078
G1 X43.243 Y53.083 E76.57304
G1 X43.647 Y52.428 E76.66539
G1 X44.116 Y51.819 E76.75763
G1 X44.646 Y51.261 E76.84998
G1 X45.231 Y50.762 E76.94225
G0 F3600 X45.134 Y51.359
G1 F1800 X45.723 Y50.898 E77.03201
G1 X46.358 Y50.502 E77.12181
G1 X47.031 Y50.177 E77.21149
G1 X47.736 Y49.925 E77.30134
G1 X48.463 Y49.75 E77.39107
G1 X49.205 Y49.653 E77.48087
G1 X49.736 Y49.633 E77.54463
G1 X55.035 Y49.633 E78.18051
G1 X55.782 Y49.673 E78.27028
G1 X56.52 Y49.792 E78.35998
G1 X57.242 Y49.99 E78.44982
G1 X57.938 Y50.263 E78.53954
G1 X58.601 Y50.61 E78.62933
G1 X59.224 Y51.025 E78.71916
G1 X59.951 Y51.65 E78.83421
G1 X68.357 Y59.943 E80.2512
G1 X69.325 Y60.893 E80.41395
G1 X79.658 Y67.71 E81.89945
G1 X91.119 Y72.407 E83.38578
G1 X103.279 Y74.802 E84.87302
G1 X115.67 Y74.801 E86.35994
G1 X127.865 Y72.396 E87.85152
G1 X129.115 Y71.884 E88.01362
G1 X139.348 Y67.678 E89.34126
G1 X140.486 Y66.93 E89.50468
G1 X149.682 Y60.844 E90.82798
G1 X150.653 Y59.89 E90.99133
G1 X158.983 Y51.662 E92.39634
G1 X158.984 Y51.663 E92.39651
G1 X159.15 Y51.487 E92.42555
G1 X159.719 Y51.003 E92.51519
G1 X160.337 Y50.581 E92.60499
G1 X160.997 Y50.228 E92.6948
G1 X161.691 Y49.948 E92.78461
G1 X162.41 Y49.743 E92.87433
G1 X163.147 Y49.616 E92.96407
G1 X163.96 Y49.568 E93.0618
G1 X169.26 Y49.564 E93.6978
G1 X170.007 Y49.603 E93.78756
G1 X170.745 Y49.722 E93.87726
G1 X171.467 Y49.919 E93.96707
G1 X172.163 Y50.192 E94.05679
G1 X172.827 Y50.538 E94.14664
G1 X173.45 Y50.952 E94.2364
G1 X174.025 Y51.431 E94.3262
G1 X174.545 Y51.968 E94.4159
G1 X175.005 Y52.558 E94.50568
G1 X175.4 Y53.193 E94.59542
G1 X175.725 Y53.867 E94.68521
G1 X175.976 Y54.572 E94.77501
G1 X176.15 Y55.3 E94.86483
G1 X176.245 Y56.042 E94.9546
G1 X176.261 Y56.789 E95.04426
G1 X176.197 Y57.535 E95.13411
G1 X176.054 Y58.269 E95.22385
G1 X175.833 Y58.984 E95.31365
G1 X175.538 Y59.671 E95.40337
G1 X175.17 Y60.323 E95.49321
G1 X174.617 Y61.076 E95.60532
G1 X169.613 Y67.012 E96.53697
G1 X169.124 Y67.535 E96.62289
G1 X163.596 Y72.874 E97.54513
G1 X163.057 Y73.344 E97.63094
G1 X157.057 Y78.057 E98.54651
G1 X156.472 Y78.47 E98.63244
G1 X149.952 Y82.59 E99.55796
G1 X149.326 Y82.941 E99.64408
G1 X142.562 Y86.3 E100.55034
G1 X141.916 Y86.582 E100.63492
G1 X134.75 Y89.281 E101.55381
G1 X134.07 Y89.498 E101.63946
G1 X126.676 Y91.45 E102.55714
G1 X125.975 Y91.597 E102.64309
G1 X118.416 Y92.784 E103.56129
G1 X117.708 Y92.859 E103.64672
G1 X110.064 Y93.272 E104.56534
G1 X109.349 Y93.274 E104.65114
G1 X101.932 Y92.917 E105.54221
G1 X101.77 Y92.907 E105.56169
G1 X101.364 Y92.878 E105.61053
G1 X100.805 Y92.816 E105.67802
G1 X93.303 Y91.669 E106.58873
G1 X92.601 Y91.524 E106.67474
G1 X85.17 Y89.594 E107.59605
G1 X84.485 Y89.378 E107.68224
G1 X77.278 Y86.691 E108.60523
G1 X76.623 Y86.408 E108.69085
G1 X69.747 Y83.012 E109.61112
G1 X69.122 Y82.663 E109.69702
G1 X62.702 Y78.628 E110.60695
G1 X62.121 Y78.22 E110.69214
G1 X56.264 Y73.65 E111.58362
G1 X56.183 Y73.586 E111.59601
G1 X55.892 Y73.352 E111.64082
G1 X55.428 Y72.944 E111.71496
G1 X49.972 Y67.7 E112.62306
G1 X49.484 Y67.18 E112.70864
G1 X44.532 Y61.34 E113.62747
G1 X44.271 Y61.013 E113.67767
G1 X44.136 Y60.833 E113.70467
G1 X43.72 Y60.211 E113.79447
G1 X43.372 Y59.549 E113.88421
G1 X43.097 Y58.853 E113.97402
G1 X42.898 Y58.132 E114.06377
G1 X42.777 Y57.394 E114.15351
G1 X42.736 Y56.647 E114.24329
G1 X42.774 Y55.9 E114.33305
G1 X42.892 Y55.161 E114.42285
G1 X43.089 Y54.439 E114.51266
G1 X43.361 Y53.742 E114.60244
G1 X43.706 Y53.079 E114.69213
G1 X44.119 Y52.455 E114.78192
G1 X44.597 Y51.88 E114.87165
G1 X45.134 Y51.359 E114.96143
G0 F3600 X45.623 Y51.471
G1 F1800 X46.215 Y51.05 E115.04861
G1 X46.85 Y50.697 E115.13579
G1 X47.52 Y50.416 E115.22297
G1 X48.216 Y50.21 E115.31008
G1 X48.931 Y50.082 E115.39724
G1 X49.736 Y50.033 E115.49402
G1 X55.035 Y50.033 E116.1299
G1 X55.76 Y50.073 E116.21703
G1 X56.477 Y50.192 E116.30425
G1 X57.176 Y50.39 E116.39143
G1 X57.849 Y50.663 E116.47858
G1 X58.488 Y51.008 E116.56572
G1 X59.085 Y51.422 E116.6529
G1 X59.67 Y51.935 E116.74627
G1 X68.077 Y60.229 E118.16343
G1 X69.073 Y61.207 E118.33094
G1 X79.468 Y68.064 E119.82528
G1 X91.002 Y72.791 E121.32109
G1 X103.241 Y75.202 E122.818
G1 X115.712 Y75.201 E124.31452
G1 X127.975 Y72.782 E125.81443
G1 X129.257 Y72.258 E125.98063
G1 X129.257 Y72.257 E125.98075
G1 X139.537 Y68.032 E127.31447
G1 X140.705 Y67.264 E127.48222
G1 X149.939 Y61.152 E128.81104
G1 X150.92 Y60.188 E128.97609
G1 X159.264 Y51.946 E130.38348
G1 X159.265 Y51.947 E130.38365
G1 X159.44 Y51.763 E130.41412
G1 X159.996 Y51.295 E130.50133
G1 X160.599 Y50.891 E130.58843
G1 X161.243 Y50.555 E130.6756
G1 X161.92 Y50.293 E130.76271
G1 X162.622 Y50.106 E130.84989
G1 X163.341 Y49.998 E130.93713
G1 X163.96 Y49.968 E131.0115
G1 X169.26 Y49.964 E131.6475
G1 X169.985 Y50.003 E131.73463
G1 X170.702 Y50.122 E131.82184
G1 X171.401 Y50.319 E131.90899
G1 X172.074 Y50.592 E131.99614
G1 X172.714 Y50.937 E132.08339
G1 X173.311 Y51.35 E132.1705
G1 X173.86 Y51.826 E132.2577
G1 X174.352 Y52.359 E132.34474
G1 X174.784 Y52.944 E132.43201
G1 X175.148 Y53.572 E132.51911
G1 X175.441 Y54.237 E132.60631
G1 X175.659 Y54.93 E132.69349
G1 X175.8 Y55.642 E132.78059
G1 X175.862 Y56.366 E132.86779
G1 X175.844 Y57.092 E132.95494
G1 X175.746 Y57.812 E133.04213
G1 X175.57 Y58.516 E133.12921
G1 X175.317 Y59.197 E133.21639
G1 X174.991 Y59.847 E133.30365
G1 X174.595 Y60.456 E133.39082
G1 X174.311 Y60.818 E133.44603
G1 X169.307 Y66.754 E134.37769
G1 X168.846 Y67.247 E134.45868
G1 X163.318 Y72.586 E135.38092
G1 X162.81 Y73.029 E135.4618
G1 X156.81 Y77.742 E136.37736
G1 X156.259 Y78.131 E136.4583
G1 X149.739 Y82.251 E137.38382
G1 X149.149 Y82.583 E137.46506
G1 X142.385 Y85.942 E138.37131
G1 X141.775 Y86.207 E138.45112
G1 X134.609 Y88.906 E139.37001
G1 X133.968 Y89.111 E139.45077
G1 X126.574 Y91.063 E140.36845
G1 X125.913 Y91.202 E140.4495
G1 X118.354 Y92.389 E141.3677
G1 X117.686 Y92.459 E141.4483
G1 X110.042 Y92.872 E142.36692
G1 X109.369 Y92.874 E142.44768
G1 X101.952 Y92.517 E143.33875
G1 X101.799 Y92.508 E143.35714
G1 X101.393 Y92.479 E143.40598
G1 X100.866 Y92.42 E143.46962
G1 X93.364 Y91.273 E144.38032
G1 X92.702 Y91.137 E144.46142
G1 X85.271 Y89.207 E145.38272
G1 X84.624 Y89.003 E145.46413
G1 X77.417 Y86.316 E146.38712
G1 X76.8 Y86.05 E146.46775
G1 X69.924 Y82.654 E147.38802
G1 X69.335 Y82.324 E147.46904
G1 X62.915 Y78.289 E148.37897
G1 X62.367 Y77.904 E148.45933
G1 X56.51 Y73.334 E149.35081
G1 X56.434 Y73.274 E149.36243
G1 X56.143 Y73.04 E149.40724
G1 X55.705 Y72.655 E149.47721
G1 X50.249 Y67.411 E150.38532
G1 X49.789 Y66.921 E150.46597
G1 X44.837 Y61.081 E151.38479
G1 X44.591 Y60.773 E151.4321
G1 X44.456 Y60.593 E151.4591
G1 X44.053 Y59.989 E151.54623
G1 X43.718 Y59.344 E151.63345
G1 X43.457 Y58.666 E151.72063
G1 X43.272 Y57.964 E151.80774
G1 X43.164 Y57.246 E151.89487
G1 X43.137 Y56.52 E151.98205
G1 X43.189 Y55.795 E152.06927
G1 X43.321 Y55.081 E152.15641
G1 X43.53 Y54.385 E152.24361
G1 X43.815 Y53.717 E152.33076
G1 X44.171 Y53.084 E152.41791
G1 X44.595 Y52.494 E152.5051
G1 X45.081 Y51.954 E152.59228
G1 X45.623 Y51.471 E152.67939
G0 F3600 X45.567 Y52.044
G1 F1800 X46.114 Y51.601 E152.76386
G1 X46.708 Y51.223 E152.84835
G1 X47.341 Y50.914 E152.93288
G1 X48.005 Y50.68 E153.01736
G1 X48.691 Y50.522 E153.10184
G1 X49.736 Y50.433 E153.22769
G1 X55.035 Y50.433 E153.86357
G1 X55.738 Y50.473 E153.94807
G1 X56.432 Y50.592 E154.03256
G1 X57.107 Y50.79 E154.11697
G1 X57.756 Y51.062 E154.20142
G1 X58.37 Y51.407 E154.28593
G1 X58.941 Y51.818 E154.37036
G1 X59.389 Y52.219 E154.44251
G1 X67.797 Y60.514 E155.85984
G1 X68.823 Y61.521 E156.03235
G1 X79.28 Y68.419 E157.53561
G1 X90.888 Y73.177 E159.04105
G1 X103.2 Y75.602 E160.54687
G1 X115.749 Y75.601 E162.05275
G1 X128.093 Y73.166 E163.56258
G1 X129.409 Y72.628 E163.73319
G1 X129.409 Y72.627 E163.73331
G1 X139.725 Y68.387 E165.07171
G1 X140.925 Y67.598 E165.24405
G1 X150.188 Y61.468 E166.57697
G1 X151.214 Y60.46 E166.74956
G1 X159.545 Y52.231 E168.15475
G1 X159.546 Y52.232 E168.15492
G1 X159.73 Y52.04 E168.18683
G1 X160.271 Y51.589 E168.27135
G1 X160.859 Y51.202 E168.35583
G1 X161.487 Y50.885 E168.44024
G1 X162.148 Y50.64 E168.52484
G1 X162.831 Y50.473 E168.60921
G1 X163.53 Y50.383 E168.69378
G1 X163.96 Y50.368 E168.74541
G1 X169.26 Y50.364 E169.38141
G1 X169.963 Y50.403 E169.4659
G1 X170.657 Y50.522 E169.5504
G1 X171.333 Y50.719 E169.63489
G1 X171.982 Y50.991 E169.71934
G1 X172.597 Y51.335 E169.8039
G1 X173.168 Y51.747 E169.88839
G1 X173.689 Y52.22 E169.97283
G1 X174.153 Y52.75 E170.05736
G1 X174.554 Y53.328 E170.14178
G1 X174.886 Y53.949 E170.22628
G1 X175.147 Y54.603 E170.31078
G1 X175.331 Y55.282 E170.3952
G1 X175.437 Y55.978 E170.47968
G1 X175.464 Y56.682 E170.56422
G1 X175.411 Y57.383 E170.64858
G1 X175.278 Y58.075 E170.73314
G1 X175.068 Y58.747 E170.81763
G1 X174.783 Y59.391 E170.90214
G1 X174.427 Y59.998 E170.98658
G1 X174.005 Y60.56 E171.07092
G1 X169.001 Y66.496 E172.00257
G1 X168.568 Y66.96 E172.07873
G1 X163.04 Y72.299 E173.00096
G1 X162.563 Y72.715 E173.07691
G1 X156.563 Y77.428 E173.99248
G1 X156.045 Y77.793 E174.06852
