;FLAVOR:UltiGCode
;TIME:2533
;MATERIAL:10047
;MATERIAL2:0
;NOZZLE_DIAMETER:0.4
;MINX:32.683
;MINY:21.221
;MINZ:0.3
;MAXX:190.317
;MAXY:201.746
;MAXZ:4.8
;Generated with Cura_SteamEngine 4.4.0-BETA
M82 ;absolute extrusion mode

G92 E0
G92 E0
G10
;LAYER_COUNT:16
;LAYER:0
M107
;MESH:Visor_frame_EUROPE_ISO838_v3.stl
G0 F3600 X78.355 Y196.673 Z0.3
;TYPE:WALL-INNER
G11
G1 F1800 X78.348 Y196.902 E0.02749
G1 X78.236 Y200.448 E0.45323
G1 X78.229 Y200.674 E0.48036
G1 X78.005 Y200.638 E0.49734
G1 X77.287 Y200.522 E0.58462
G1 X77.09 Y200.491 E0.60855
G1 X77.121 Y200.294 E0.624
G1 X77.724 Y196.545 E1.07967
G1 X73.059 Y195.539 E1.65234
G1 X69.337 Y194.653 E2.11146
G1 X65.665 Y193.692 E2.56694
G1 X61.991 Y192.644 E3.0254
G1 X61.252 Y192.383 E3.11945
G1 X60.521 Y192.037 E3.2165
G1 X59.867 Y191.642 E3.30818
G1 X59.229 Y191.162 E3.40399
G1 X58.647 Y190.623 E3.49918
G1 X58.137 Y190.044 E3.59177
G1 X57.681 Y189.406 E3.68588
G1 X57.284 Y188.709 E3.78213
G1 X56.963 Y187.982 E3.8775
G1 X56.724 Y187.246 E3.97036
G1 X56.56 Y186.491 E4.06307
G1 X56.471 Y185.685 E4.16038
G1 X56.463 Y184.897 E4.25494
G1 X56.491 Y183.94 E4.36983
G1 X56.463 Y182.917 E4.49264
G1 X56.338 Y181.887 E4.61715
G1 X56.12 Y180.871 E4.74184
G1 X55.807 Y179.879 E4.86667
G1 X55.41 Y178.925 E4.99066
G1 X55.06 Y178.254 E5.08148
G1 X54.725 Y177.674 E5.16185
G1 X54.336 Y177.121 E5.24299
G1 X53.696 Y176.323 E5.36574
G1 X52.974 Y175.575 E5.49049
G1 X52.186 Y174.897 E5.61524
G1 X51.339 Y174.294 E5.74
G1 X50.44 Y173.773 E5.86469
G1 X49.495 Y173.337 E5.98958
G1 X48.516 Y172.99 E6.11422
G1 X47.508 Y172.735 E6.23899
G1 X46.512 Y172.578 E6.35998
G1 X45.327 Y172.429 E6.5033
G1 X44.531 Y172.243 E6.6014
G1 X43.8 Y171.992 E6.69414
G1 X43.082 Y171.659 E6.78912
G1 X42.401 Y171.254 E6.8842
G1 X41.765 Y170.781 E6.97931
G1 X41.18 Y170.247 E7.07436
G1 X40.656 Y169.656 E7.16914
G1 X40.187 Y169.009 E7.26504
G1 X39.796 Y168.332 E7.35885
G1 X39.467 Y167.598 E7.45537
G1 X39.224 Y166.859 E7.54873
G1 X39.053 Y166.076 E7.6449
G1 X38.853 Y164.543 E7.83042
G1 X38.604 Y162.438 E8.08478
G1 X38.282 Y159.086 E8.48887
G1 X38.035 Y155.733 E8.89232
G1 X37.86 Y152.382 E9.29499
G1 X37.761 Y148.997 E9.70136
G1 X37.734 Y145.652 E10.10278
G1 X37.796 Y141.265 E10.62927
G1 X34.004 Y141.204 E11.08437
G1 X33.51 Y141.195 E11.14366
G1 X33.531 Y139.893 E11.29992
G1 X33.831 Y139.898 E11.33592
G1 X33.832 Y139.899 E11.33609
G1 X34.032 Y139.901 E11.36009
G1 X34.029 Y140.101 E11.37561
G1 X34.028 Y140.102 E11.37578
G1 X34.008 Y140.9 E11.47157
G1 X37.803 Y140.962 E11.81719
G1 X38.05 Y136.246 E12.38389
G1 X38.335 Y132.51 E12.83351
G1 X38.712 Y128.776 E13.28387
G1 X39.18 Y125.055 E13.73391
G1 X39.743 Y121.325 E14.18658
G1 X40.387 Y117.648 E14.63453
G1 X41.127 Y113.968 E15.08497
G1 X41.956 Y110.309 E15.53518
G1 X42.879 Y106.653 E15.98766
G1 X43.881 Y103.053 E16.43609
G1 X44.975 Y99.467 E16.88599
G1 X46.162 Y95.887 E17.33858
G1 X47.424 Y92.373 E17.78663
G1 X48.785 Y88.855 E18.23928
G1 X50.215 Y85.407 E18.68722
G1 X51.744 Y81.97 E19.13863
G1 X53.35 Y78.579 E19.58888
G1 X55.037 Y75.233 E20.03854
G1 X56.813 Y71.912 E20.49047
G1 X58.654 Y68.664 E20.93849
G1 X60.586 Y65.441 E21.38941
G1 X62.591 Y62.274 E21.83921
G1 X64.686 Y59.137 E22.29188
G1 X66.833 Y56.085 E22.73966
G1 X69.067 Y53.07 E23.18996
G1 X71.38 Y50.103 E23.64141
G1 X73.755 Y47.204 E24.09112
G1 X76.204 Y44.359 E24.54159
G1 X78.716 Y41.582 E24.99094
G1 X81.315 Y38.847 E25.44369
G1 X83.985 Y36.17 E25.8974
G1 X84.555 Y35.539 E25.99944
G1 X85.064 Y34.814 E26.10574
G1 X85.481 Y34.032 E26.21209
G1 X85.801 Y33.207 E26.31827
G1 X86.017 Y32.348 E26.42456
G1 X86.126 Y31.469 E26.53085
G1 X86.128 Y30.583 E26.63717
G1 X86.021 Y29.705 E26.74331
G1 X85.808 Y28.844 E26.84974
G1 X85.493 Y28.016 E26.95605
G1 X85.078 Y27.234 E27.06229
G1 X84.571 Y26.507 E27.16865
G1 X83.979 Y25.848 E27.27495
G1 X83.311 Y25.267 E27.38119
G1 X82.579 Y24.772 E27.48723
G1 X81.79 Y24.368 E27.5936
G1 X80.958 Y24.065 E27.69985
G1 X80.097 Y23.864 E27.80595
G1 X79.216 Y23.771 E27.91226
G1 X78.33 Y23.784 E28.01859
G1 X77.452 Y23.907 E28.12498
G1 X76.598 Y24.136 E28.23108
G1 X75.778 Y24.466 E28.33715
G1 X75.002 Y24.895 E28.44355
G1 X74.286 Y25.415 E28.54974
G1 X73.639 Y26.018 E28.65587
G1 X73.069 Y26.695 E28.76207
G1 X72.586 Y27.437 E28.86831
G1 X72.198 Y28.232 E28.97447
G1 X71.909 Y29.07 E29.08084
G1 X71.725 Y29.936 E29.18708
G1 X71.647 Y30.818 E29.29333
G1 X71.679 Y31.7 E29.39924
G1 X71.817 Y32.573 E29.5053
G1 X72.059 Y33.426 E29.6117
G1 X72.405 Y34.239 E29.71773
G1 X72.848 Y35.005 E29.82392
G1 X73.365 Y35.691 E29.927
G1 X73.777 Y36.164 E30.00227
G1 X73.888 Y36.338 E30.02704
G1 X73.949 Y36.548 E30.05328
G1 X73.958 Y36.724 E30.07443
G1 X73.909 Y36.928 E30.0996
G1 X73.832 Y37.077 E30.11973
G1 X73.679 Y37.237 E30.14629
G1 X73.545 Y37.324 E30.16547
G1 X73.333 Y37.386 E30.19197
G1 X73.156 Y37.395 E30.21324
G1 X72.952 Y37.346 E30.23841
G1 X72.81 Y37.273 E30.25757
G1 X72.458 Y36.929 E30.31664
G1 X72.116 Y36.552 E30.37772
G1 X71.612 Y35.872 E30.47929
G1 X71.17 Y35.134 E30.58252
G1 X70.813 Y34.38 E30.68262
G1 X70.519 Y33.559 E30.78727
G1 X70.308 Y32.722 E30.89085
G1 X70.182 Y31.89 E30.99183
G1 X70.139 Y31.058 E31.09181
G1 X70.18 Y30.179 E31.1974
G1 X70.302 Y29.345 E31.29855
G1 X70.506 Y28.509 E31.40181
G1 X70.793 Y27.694 E31.5055
G1 X71.145 Y26.942 E31.60513
G1 X71.585 Y26.197 E31.70896
G1 X72.085 Y25.512 E31.81073
G1 X72.656 Y24.872 E31.91365
G1 X73.284 Y24.296 E32.01591
G1 X73.971 Y23.777 E32.11923
G1 X74.693 Y23.336 E32.22075
G1 X75.456 Y22.967 E32.32246
G1 X76.261 Y22.669 E32.42547
G1 X77.095 Y22.451 E32.52891
G1 X77.926 Y22.319 E32.62988
G1 X78.774 Y22.267 E32.73183
G1 X79.651 Y22.3 E32.83714
G1 X80.471 Y22.41 E32.93643
G1 X81.302 Y22.606 E33.03888
G1 X82.12 Y22.885 E33.14259
G1 X82.902 Y23.243 E33.2458
G1 X83.628 Y23.662 E33.34639
G1 X84.317 Y24.157 E33.44819
G1 X84.973 Y24.731 E33.55279
G1 X85.544 Y25.341 E33.65306
G1 X86.072 Y26.028 E33.75704
G1 X86.525 Y26.751 E33.85942
G1 X86.899 Y27.506 E33.96053
G1 X87.202 Y28.305 E34.06307
G1 X87.431 Y29.144 E34.16743
G1 X87.568 Y29.956 E34.26625
G1 X87.63 Y30.823 E34.37055
G1 X87.606 Y31.681 E34.47355
G1 X87.499 Y32.525 E34.57564
G1 X87.315 Y33.338 E34.67567
G1 X87.037 Y34.174 E34.78139
G1 X86.697 Y34.938 E34.88174
G1 X86.272 Y35.691 E34.9855
G1 X85.793 Y36.371 E35.08531
G1 X85.227 Y37.029 E35.18947
G1 X83.327 Y38.952 E35.51386
G1 X82.321 Y39.962 E35.68493
G1 X79.703 Y42.722 E36.14143
G1 X77.156 Y45.549 E36.59804
G1 X74.678 Y48.437 E37.05469
G1 X72.274 Y51.387 E37.51135
G1 X69.945 Y54.396 E37.96795
G1 X67.691 Y57.462 E38.4246
G1 X65.514 Y60.583 E38.88123
G1 X63.417 Y63.76 E39.33803
G1 X61.398 Y66.985 E39.79461
G1 X59.462 Y70.261 E40.25125
G1 X57.608 Y73.586 E40.70808
G1 X55.839 Y76.952 E41.16439
G1 X54.152 Y80.364 E41.62114
G1 X52.552 Y83.816 E42.07771
G1 X51.039 Y87.31 E42.53462
G1 X49.615 Y90.837 E42.99105
G1 X48.278 Y94.399 E43.44761
G1 X47.03 Y97.996 E43.90449
G1 X45.873 Y101.621 E44.36111
G1 X44.808 Y105.273 E44.81761
G1 X43.834 Y108.951 E45.27418
G1 X42.952 Y112.653 E45.73085
G1 X42.163 Y116.376 E46.18754
G1 X41.467 Y120.118 E46.64428
G1 X40.863 Y123.875 E47.10091
G1 X40.355 Y127.647 E47.55763
G1 X39.942 Y131.428 E48.01405
G1 X39.622 Y135.22 E48.47071
G1 X39.397 Y139.019 E48.92739
G1 X39.269 Y142.821 E49.38389
G1 X39.235 Y146.627 E49.84062
G1 X39.295 Y150.432 E50.29728
G1 X39.453 Y154.234 E50.75391
G1 X39.703 Y158.031 E51.21054
G1 X40.048 Y161.821 E51.66722
G1 X40.491 Y165.628 E52.12714
G1 X40.64 Y166.39 E52.22032
G1 X40.896 Y167.154 E52.31701
G1 X41.246 Y167.878 E52.41351
G1 X41.688 Y168.55 E52.51002
G1 X42.21 Y169.16 E52.60637
G1 X42.807 Y169.697 E52.70273
G1 X43.469 Y170.155 E52.79932
G1 X44.184 Y170.523 E52.89582
G1 X44.938 Y170.794 E52.99197
G1 X45.706 Y170.965 E53.08639
G1 X46.858 Y171.107 E53.22567
G1 X47.896 Y171.283 E53.35201
G1 X48.918 Y171.545 E53.47862
G1 X49.912 Y171.89 E53.60488
G1 X50.883 Y172.318 E53.73221
G1 X51.817 Y172.829 E53.85997
G1 X52.689 Y173.403 E53.98525
G1 X53.522 Y174.056 E54.11226
G1 X54.289 Y174.767 E54.23776
G1 X55.008 Y175.553 E54.36559
G1 X55.64 Y176.37 E54.48954
G1 X56.218 Y177.264 E54.61729
G1 X56.719 Y178.197 E54.74437
G1 X57.145 Y179.184 E54.87337
G1 X57.477 Y180.152 E54.99617
G1 X57.733 Y181.183 E55.12365
G1 X57.901 Y182.221 E55.24983
G1 X57.984 Y183.269 E55.37599
G1 X57.979 Y184.35 E55.50571
G1 X57.958 Y185.264 E55.61542
G1 X58.012 Y186.058 E55.71092
G1 X58.174 Y186.856 E55.80863
G1 X58.438 Y187.626 E55.90631
G1 X58.8 Y188.353 E56.00377
G1 X59.25 Y189.028 E56.10112
G1 X59.79 Y189.641 E56.19915
G1 X60.401 Y190.176 E56.2966
G1 X61.072 Y190.623 E56.39335
G1 X62.165 Y191.187 E56.54095
G1 X63.195 Y190.207 E56.71155
G1 X61.927 Y187.417 E57.07931
G1 X61.795 Y187.028 E57.1286
G1 X61.748 Y186.745 E57.16303
G1 X61.747 Y186.413 E57.20287
G1 X62.418 Y177.754 E58.24506
G1 X62.523 Y177.296 E58.30145
G1 X62.631 Y177.068 E58.33172
G1 X62.725 Y176.938 E58.35097
G1 X63.049 Y176.656 E58.40252
G1 X63.263 Y176.541 E58.43167
G1 X63.497 Y176.473 E58.46091
G1 X63.856 Y176.447 E58.50411
G1 X63.923 Y176.454 E58.51219
G1 X64.112 Y176.535 E58.53686
G1 X66.557 Y178.018 E58.88002
G1 X69.123 Y179.461 E59.23329
G1 X71.736 Y180.817 E59.58655
G1 X74.389 Y182.087 E59.93951
G1 X77.086 Y183.269 E60.29287
G1 X79.818 Y184.359 E60.64584
G1 X82.586 Y185.358 E60.99897
G1 X85.385 Y186.267 E61.35212
G1 X88.212 Y187.083 E61.70521
G1 X91.065 Y187.805 E62.05836
G1 X93.941 Y188.432 E62.41158
G1 X96.835 Y188.965 E62.76471
G1 X99.746 Y189.401 E63.11792
G1 X102.668 Y189.74 E63.47091
G1 X105.603 Y189.982 E63.82431
G1 X108.541 Y190.129 E64.17731
G1 X111.484 Y190.177 E64.53052
G1 X114.426 Y190.129 E64.8836
G1 X117.365 Y189.982 E65.23672
G1 X120.299 Y189.74 E65.59
G1 X123.222 Y189.401 E65.94311
G1 X126.133 Y188.965 E66.29633
G1 X129.027 Y188.432 E66.64945
G1 X131.903 Y187.805 E67.00268
G1 X134.756 Y187.083 E67.35583
G1 X137.583 Y186.267 E67.70892
G1 X140.382 Y185.358 E68.06207
G1 X143.149 Y184.359 E68.41508
G1 X145.881 Y183.269 E68.76805
G1 X148.579 Y182.087 E69.12152
G1 X151.232 Y180.817 E69.47448
G1 X153.845 Y179.461 E69.82775
G1 X156.411 Y178.018 E70.18101
G1 X158.856 Y176.535 E70.52417
G1 X159.019 Y176.466 E70.54541
G1 X159.321 Y176.446 E70.58173
G1 X159.508 Y176.476 E70.60445
G1 X159.678 Y176.529 E70.62582
G1 X160.042 Y176.745 E70.67661
G1 X160.23 Y176.922 E70.7076
G1 X160.345 Y177.08 E70.73105
G1 X160.435 Y177.256 E70.75477
G1 X160.508 Y177.507 E70.78614
G1 X161.098 Y184.81 E71.66535
G1 X161.221 Y186.419 E71.859
G1 X161.224 Y186.723 E71.89548
G1 X161.187 Y186.985 E71.92723
G1 X161.115 Y187.231 E71.95799
G1 X160.927 Y187.627 E72.01059
G1 X159.499 Y190.242 E72.36813
G1 X160.514 Y191.295 E72.54364
G1 X162.001 Y190.568 E72.74226
G1 X162.641 Y190.123 E72.8358
G1 X163.213 Y189.613 E72.92776
G1 X163.717 Y189.036 E73.0197
G1 X164.147 Y188.404 E73.11143
G1 X164.497 Y187.722 E73.20342
G1 X164.76 Y187.004 E73.29517
G1 X164.934 Y186.257 E73.38721
G1 X165.014 Y185.496 E73.47904
G1 X165.004 Y184.785 E73.56437
G1 X164.979 Y184.082 E73.64878
G1 X164.996 Y183.019 E73.77635
G1 X165.096 Y182.001 E73.8991
G1 X165.294 Y180.914 E74.03169
G1 X165.56 Y179.926 E74.15447
G1 X165.918 Y178.939 E74.28046
G1 X166.36 Y177.97 E74.40827
G1 X166.877 Y177.048 E74.53511
G1 X167.46 Y176.188 E74.65979
G1 X168.125 Y175.361 E74.78714
G1 X168.861 Y174.589 E74.91513
G1 X169.645 Y173.891 E75.04109
G1 X170.486 Y173.256 E75.16755
G1 X171.373 Y172.697 E75.29337
G1 X172.3 Y172.217 E75.41863
G1 X173.285 Y171.803 E75.54685
G1 X174.286 Y171.475 E75.67325
G1 X175.289 Y171.24 E75.79687
G1 X176.392 Y171.075 E75.93071
G1 X177.263 Y170.962 E76.0361
G1 X178.028 Y170.793 E76.13012
G1 X178.783 Y170.522 E76.22637
G1 X179.498 Y170.154 E76.32287
G1 X180.16 Y169.696 E76.41947
G1 X180.756 Y169.16 E76.51566
G1 X181.279 Y168.549 E76.61217
G1 X181.721 Y167.877 E76.70869
G1 X182.071 Y167.153 E76.80519
G1 X182.327 Y166.389 E76.90188
G1 X182.476 Y165.627 E76.99505
G1 X182.92 Y161.821 E77.45487
G1 X183.265 Y158.031 E77.91155
G1 X183.515 Y154.234 E78.36818
G1 X183.672 Y150.432 E78.82481
G1 X183.733 Y146.627 E79.28146
G1 X183.699 Y142.821 E79.7382
G1 X183.57 Y139.019 E80.1947
G1 X183.345 Y135.22 E80.65138
G1 X183.026 Y131.428 E81.10803
G1 X182.612 Y127.646 E81.56458
G1 X182.104 Y123.875 E82.02119
G1 X181.501 Y120.118 E82.4778
G1 X180.805 Y116.376 E82.93454
G1 X180.016 Y112.653 E83.39122
G1 X179.134 Y108.951 E83.8479
G1 X178.16 Y105.273 E84.30447
G1 X177.094 Y101.621 E84.761
G1 X175.938 Y97.996 E85.21758
G1 X174.689 Y94.399 E85.6745
G1 X173.353 Y90.837 E86.13102
G1 X171.929 Y87.31 E86.58745
G1 X170.415 Y83.816 E87.0444
G1 X168.815 Y80.364 E87.50098
G1 X167.128 Y76.952 E87.95773
G1 X165.36 Y73.586 E88.41398
G1 X163.505 Y70.261 E88.87087
G1 X161.57 Y66.985 E89.32745
G1 X159.55 Y63.76 E89.78409
G1 X157.453 Y60.583 E90.24089
G1 X155.277 Y57.462 E90.69746
G1 X153.023 Y54.396 E91.1541
G1 X150.694 Y51.387 E91.61071
G1 X148.29 Y48.437 E92.06736
G1 X145.811 Y45.549 E92.52409
G1 X143.265 Y42.722 E92.98063
G1 X140.646 Y39.962 E93.43721
G1 X137.987 Y37.295 E93.88913
G1 X137.373 Y36.634 E93.99739
G1 X136.872 Y35.977 E94.09654
G1 X136.412 Y35.228 E94.20202
G1 X136.04 Y34.468 E94.30356
G1 X135.741 Y33.668 E94.40604
G1 X135.523 Y32.845 E94.50821
G1 X135.384 Y31.999 E94.61109
G1 X135.33 Y31.155 E94.71258
G1 X135.359 Y30.291 E94.81632
G1 X135.471 Y29.447 E94.91848
G1 X135.663 Y28.624 E95.0199
G1 X135.938 Y27.808 E95.12323
G1 X136.287 Y27.034 E95.22511
G1 X136.714 Y26.293 E95.32774
G1 X137.214 Y25.589 E95.43136
G1 X137.772 Y24.946 E95.53352
G1 X138.379 Y24.374 E95.63361
G1 X139.06 Y23.845 E95.73709
G1 X139.784 Y23.391 E95.83963
G1 X140.541 Y23.011 E95.94128
G1 X141.35 Y22.701 E96.04524
G1 X142.179 Y22.474 E96.14838
G1 X143.008 Y22.331 E96.24933
G1 X143.855 Y22.268 E96.35125
G1 X144.711 Y22.29 E96.45401
G1 X145.575 Y22.395 E96.55845
G1 X146.383 Y22.575 E96.65779
G1 X147.204 Y22.845 E96.7615
G1 X147.979 Y23.185 E96.86305
G1 X148.726 Y23.606 E96.96595
G1 X149.429 Y24.096 E97.06878
G1 X150.082 Y24.653 E97.17177
G1 X150.661 Y25.255 E97.272
G1 X151.195 Y25.932 E97.37548
G1 X151.652 Y26.644 E97.477
G1 X152.055 Y27.427 E97.58268
G1 X152.354 Y28.189 E97.6809
G1 X152.594 Y29.032 E97.78608
G1 X152.745 Y29.855 E97.88649
G1 X152.817 Y30.712 E97.98969
G1 X152.802 Y31.564 E98.09195
G1 X152.708 Y32.411 E98.19421
G1 X152.529 Y33.246 E98.29669
G1 X152.273 Y34.049 E98.39783
G1 X151.927 Y34.855 E98.50308
G1 X151.524 Y35.589 E98.60357
G1 X151.039 Y36.298 E98.70665
G1 X150.5 Y36.939 E98.80715
G1 X150.214 Y37.231 E98.8562
G1 X150.065 Y37.327 E98.87747
G1 X149.859 Y37.389 E98.90328
G1 X149.689 Y37.398 E98.92371
G1 X149.481 Y37.348 E98.94938
G1 X149.328 Y37.27 E98.96999
G1 X149.171 Y37.121 E98.99596
G1 X149.077 Y36.977 E99.0166
G1 X149.016 Y36.772 E99.04226
G1 X149.007 Y36.602 E99.06269
G1 X149.058 Y36.394 E99.08839
G1 X149.145 Y36.22 E99.11174
G1 X149.604 Y35.692 E99.19569
G1 X150.119 Y35.006 E99.29863
G1 X150.562 Y34.24 E99.40481
G1 X150.907 Y33.427 E99.51079
G1 X151.15 Y32.576 E99.61699
G1 X151.289 Y31.7 E99.72343
G1 X151.32 Y30.817 E99.82945
G1 X151.241 Y29.935 E99.93572
G1 X151.057 Y29.071 E100.04172
G1 X150.769 Y28.234 E100.14794
G1 X150.381 Y27.438 E100.25421
G1 X149.898 Y26.698 E100.36025
G1 X149.331 Y26.019 E100.4664
G1 X148.683 Y25.416 E100.57262
G1 X147.967 Y24.896 E100.67881
G1 X147.191 Y24.467 E100.78521
G1 X146.37 Y24.137 E100.89139
G1 X145.516 Y23.908 E100.99749
G1 X144.639 Y23.785 E101.10376
G1 X143.753 Y23.772 E101.21009
G1 X142.872 Y23.865 E101.3164
G1 X142.011 Y24.066 E101.4225
G1 X141.179 Y24.369 E101.52875
G1 X140.389 Y24.773 E101.63523
G1 X139.657 Y25.268 E101.74127
G1 X138.99 Y25.849 E101.84742
G1 X138.397 Y26.508 E101.9538
G1 X137.891 Y27.235 E102.06009
G1 X137.476 Y28.015 E102.16611
G1 X137.161 Y28.843 E102.27242
G1 X136.948 Y29.704 E102.37886
G1 X136.841 Y30.582 E102.485
G1 X136.842 Y31.468 E102.59132
G1 X136.952 Y32.347 E102.69762
G1 X137.168 Y33.206 E102.80391
G1 X137.488 Y34.033 E102.91032
G1 X137.905 Y34.813 E103.01645
G1 X138.413 Y35.538 E103.12269
G1 X138.984 Y36.169 E103.22481
G1 X141.658 Y38.849 E103.67911
G1 X144.238 Y41.565 E104.12864
G1 X146.753 Y44.344 E104.57841
G1 X149.217 Y47.207 E105.03168
G1 X151.58 Y50.091 E105.4791
